asset/images/icons/icon-24/dropdown-close.svg

<svg width="26" height="26" viewBox="0 0 26 26" fill="none" xmlns="http://www.w3.org/2000/svg">
<path d="M17 15L13 11L9 15" stroke="#8A8CCE" stroke-width="1.5"/>
<path d="M13 24.5C6.64873 24.5 1.5 19.3513 1.5 13H0.5C0.5 19.9036 6.09644 25.5 13 25.5V24.5ZM24.5 13C24.5 19.3513 19.3513 24.5 13 24.5V25.5C19.9036 25.5 25.5 19.9036 25.5 13H24.5ZM13 1.5C19.3513 1.5 24.5 6.64873 24.5 13H25.5C25.5 6.09644 19.9036 0.5 13 0.5V1.5ZM13 0.5C6.09644 0.5 0.5 6.09644 0.5 13H1.5C1.5 6.64873 6.64873 1.5 13 1.5V0.5Z" fill="#4D4D4D"/>
</svg>

<svg id="Слой_1" data-name="Слой 1" xmlns="http://www.w3.org/2000/svg" viewBox="0 0 26 26"><defs><style>.cls-1{fill:#8a8cce;}.cls-2{fill:#4d4d4d;}</style></defs><title>dropdown-close</title><polygon class="cls-1" points="16.47 15.53 13 12.06 9.53 15.53 8.47 14.47 13 9.94 17.53 14.47 16.47 15.53"/><path class="cls-2" d="M13,24.5A11.5,11.5,0,0,1,1.5,13h-1A12.5,12.5,0,0,0,13,25.5v-1ZM24.5,13A11.5,11.5,0,0,1,13,24.5v1A12.5,12.5,0,0,0,25.5,13h-1ZM13,1.5A11.5,11.5,0,0,1,24.5,13h1A12.5,12.5,0,0,0,13,.5v1Zm0-1A12.5,12.5,0,0,0,.5,13h1A11.5,11.5,0,0,1,13,1.5v-1Z"/></svg>
